Obsidian/actions/24s/tab-close.svg

<svg height="24" viewBox="0 0 24 24" width="24" xmlns="http://www.w3.org/2000/svg"><path d="m4 2.0039062s-2 0-2 2v6.9999998c0 1-1 1-1 1h-1v2h16v-2h-1s-1 0-1-1v-6.9999998s0-2-2-2zm2.5859375 3.171875 1.4140625 1.4140626 1.4140625-1.4140626 1.4140625 1.4140626-1.4140625 1.4140624 1.4140625 1.4140626-1.4140625 1.4140622-1.4140625-1.4140622-1.4140625 1.4140622-1.4140625-1.4140622 1.4140625-1.4140626-1.4140625-1.4140624z" fill="#bebebe" transform="translate(4 4)"/></svg>

<svg xmlns="http://www.w3.org/2000/svg" width="24" height="24" viewBox="0 0 24 24">
 <defs>
  <style id="current-color-scheme" type="text/css">
   .ColorScheme-Text { color:#bebebe; } .ColorScheme-Highlight { color:#4285f4; }
  </style>
 </defs>
 <path style="fill:currentColor" class="ColorScheme-Text" d="M 4 2.0039062 C 4 2.0039062 2 2.0039062 2 4.0039062 L 2 11.003906 C 2 12.003906 1 12.003906 1 12.003906 L 0 12.003906 L 0 14.003906 L 16 14.003906 L 16 12.003906 L 15 12.003906 C 15 12.003906 14 12.003906 14 11.003906 L 14 4.0039062 C 14 4.0039062 14 2.0039062 12 2.0039062 L 4 2.0039062 z M 6.5859375 5.1757812 L 8 6.5898438 L 9.4140625 5.1757812 L 10.828125 6.5898438 L 9.4140625 8.0039062 L 10.828125 9.4179688 L 9.4140625 10.832031 L 8 9.4179688 L 6.5859375 10.832031 L 5.171875 9.4179688 L 6.5859375 8.0039062 L 5.171875 6.5898438 L 6.5859375 5.1757812 z" transform="translate(4 4)"/>
</svg>
